archdroid-icon-theme/Archdroid-Indigo/devices/scalable/audio-card.svg

<?xml version="1.0" encoding="UTF-8" standalone="no"?>
<svg
   xmlns:dc="http://purl.org/dc/elements/1.1/"
   xmlns:cc="http://creativecommons.org/ns#"
   xmlns:rdf="http://www.w3.org/1999/02/22-rdf-syntax-ns#"
   xmlns:svg="http://www.w3.org/2000/svg"
   xmlns="http://www.w3.org/2000/svg"
   xmlns:sodipodi="http://sodipodi.sourceforge.net/DTD/sodipodi-0.dtd"
   xmlns:inkscape="http://www.inkscape.org/namespaces/inkscape"
   fill="#3F51B5"
   width="48"
   height="48"
   viewBox="0 0 48 48"
   id="svg2"
   version="1.1"
   inkscape:version="0.91 r13725"
   sodipodi:docname="audio-card.svg">
  <metadata
     id="metadata10">
    <rdf:RDF>
      <cc:Work
         rdf:about="">
        <dc:format>image/svg+xml</dc:format>
        <dc:type
           rdf:resource="http://purl.org/dc/dcmitype/StillImage" />
      </cc:Work>
    </rdf:RDF>
  </metadata>
  <defs
     id="defs8" />
  <sodipodi:namedview
     pagecolor="#ffffff"
     bordercolor="#666666"
     borderopacity="1"
     objecttolerance="10"
     gridtolerance="10"
     guidetolerance="10"
     inkscape:pageopacity="0"
     inkscape:pageshadow="2"
     inkscape:window-width="1366"
     inkscape:window-height="713"
     id="namedview6"
     showgrid="false"
     inkscape:snap-bbox="true"
     inkscape:bbox-nodes="true"
     inkscape:snap-bbox-edge-midpoints="true"
     inkscape:object-paths="true"
     inkscape:snap-intersection-paths="true"
     inkscape:object-nodes="true"
     inkscape:snap-midpoints="true"
     inkscape:snap-smooth-nodes="true"
     inkscape:snap-nodes="false"
     inkscape:bbox-paths="true"
     inkscape:zoom="1.897875063564134"
     inkscape:cx="-146.9257683953708"
     inkscape:cy="-68.37536601582852"
     inkscape:window-x="0"
     inkscape:window-y="30"
     inkscape:window-maximized="1"
     inkscape:current-layer="svg2" />
  <path
     style="opacity:1;fill:#3F51B5;fill-opacity:1;fill-rule:nonzero;stroke:none;stroke-width:4;stroke-miterlimit:4;stroke-dasharray:none;stroke-opacity:1"
     d="M 8 10 C 5.784000000000001 10 4 11.784 4 14 L 4 34 C 4.000000000000001 36.216 5.784 38 8 38 L 13 38 L 13 41 L 13 45.71484375 C 13 46.42712945485115 13.98041859149932 47 15.19921875 47 L 32.80078125 47 C 34.01958140850066 47.00000000000001 35 46.42712945485114 35 45.71484375 L 35 39.28515625 L 35 38 L 40 38 C 42.216 38 44 36.216 44 34 L 44 14 C 44 11.784 42.216 10 40 10 L 8 10 z M 24 14 L 32 14 L 32 18 L 26 18 L 26 29 C 26 31.76 23.75999999999999 34 21 34 C 18.24 34 16 31.76 16 29 C 16 26.24000000000001 18.24 24 21 24 C 22.12999999999999 24 23.15999999999999 24.38953125 24 25.01953125 L 24 14 z M 15 39 L 18 39 L 18 45 L 15 45 L 15 39 z M 20 39 L 23 39 L 23 45 L 20 45 L 20 39 z M 25 39 L 28 39 L 28 45 L 25 45 L 25 39 z M 30 39 L 33 39 L 33 45 L 30 45 L 30 39 z "
     id="rect4162" />
</svg>

<svg xmlns="http://www.w3.org/2000/svg" fill="#3F51B5" viewBox="0 0 48 48"><path d="m8 10c-2.216 0-4 1.784-4 4v20c0 2.216 1.784 4 4 4h5v3 4.715c0 .712.98 1.285 2.199 1.285h17.602c1.219 0 2.199-.573 2.199-1.285v-6.43-1.285h5c2.216 0 4-1.784 4-4v-20c0-2.216-1.784-4-4-4h-32m16 4h8v4h-6v11c0 2.76-2.24 5-5 5-2.76 0-5-2.24-5-5 0-2.76 2.24-5 5-5 1.13 0 2.16.39 3 1.02v-11.02m-9 25h3v6h-3v-6m5 0h3v6h-3v-6m5 0h3v6h-3v-6m5 0h3v6h-3v-6"/></svg>
